X: 867
T: Salt Creek
C:Traditional
B: jims roots
B: ralph
M:4/4
L:1/8
Q: 1/4=100
K:A
V:1 
%N:Jim Kendrick
|:"A"{G}[A2A2][AA][AA][A2A2][AA][AA] | BABc "D"d2 dd | "G"BA=GA BAGA | BA=G^G "E"E2 EE |
"A"{G}[A2A2][AA][AA][A2A2][AA][AA] | BABc "D"d2 ef | "G"gagf efed | "E"cAB"A"c A4:|
|: "A"[ea][e2a2][ea][e2a2]ab | c'abc' bae2 | "G"[dg][d2g][dg][d2g] ga | bgab age2 |
"A"[ea][e2a2][ea][e2a2]ab | c'abc' baef |"G"gagf efed | "E"cABc "A"A4:|
% abcbook-tune_id 6298c287030104bfe1a9fcc2


% abcbook-boost 0
% abcbook-tablature 
% abcbook-transpose 
% abcbook-lastupdated 1665486405742
% abcbook-soundfonts 
% abcbook-repeats 1


